icons/square/48/klatexformula.svg

<svg width="48" height="48" version="1.1" viewBox="0 0 48 48.000001" xmlns="http://www.w3.org/2000/svg">
 <defs>
  <linearGradient id="linearGradient4501" x1="-47" x2="-1" y1="2.8779e-15" y2="6.1232e-17" gradientUnits="userSpaceOnUse">
   <stop style="stop-color:#f9f1c3" offset="0"/>
   <stop style="stop-color:#fbf5d5" offset="1"/>
  </linearGradient>
 </defs>
 <g transform="translate(0 3.949e-5)">
  <path d="m1 43v0.25c0 2.216 1.784 4 4 4h38c2.216 0 4-1.784 4-4v-0.25c0 2.216-1.784 4-4 4h-38c-2.216 0-4-1.784-4-4zm0 0.5v0.5c0 2.216 1.784 4 4 4h38c2.216 0 4-1.784 4-4v-0.5c0 2.216-1.784 4-4 4h-38c-2.216 0-4-1.784-4-4z" style="opacity:.02"/>
  <path d="m1 43.25v0.25c0 2.216 1.784 4 4 4h38c2.216 0 4-1.784 4-4v-0.25c0 2.216-1.784 4-4 4h-38c-2.216 0-4-1.784-4-4z" style="opacity:.05"/>
  <path d="m1 43v0.25c0 2.216 1.784 4 4 4h38c2.216 0 4-1.784 4-4v-0.25c0 2.216-1.784 4-4 4h-38c-2.216 0-4-1.784-4-4z" style="opacity:.1"/>
 </g>
 <rect transform="rotate(-90)" x="-47" y="1" width="46" height="46" rx="4" style="fill:url(#linearGradient4501)"/>
 <path d="m8.002 1v5.5l-2e-3 0.00195v0.5h-7v1.002l7-0.00195v7h-7v1h6.998v7h-6.998v1h6.998v7h-6.998v1h6.998v7l-6.998-2e-3v1.002h7v6.998h1l-0.0019-5.5645 0.0039 0.0039v-1.4375h6.9961v6.998h1.0039v-6.9961h6.9961v6.9961h1v-6.998h7v6.998h1v-6.9961l7-0.0039v0.5l2e-3 -2e-3v6.502h1v-7h6v-1h-6l-2e-3 -6.9961h6.002v-1.0039h-6.002v-6.9961h6.002v-1.0039h-6.002v-6.9961h6.002v-1.0039h-6l2e-3 -6.9961h5.998v-1h-5.998v-6.0039h-1v5.5098l-0.0059-0.00586v0.5l-6.9961-0.00391v-6h-1.0039v6.002h-6.9961v-6.002h-1v6h-7v-6h-1v6.002h-7v-1.4395l2e-3 -4.5625h-1zm1 7.0039h6.998v6.9961h-6.998zm8 0h6.998v6.9961h-6.998zm8 0h6.998v6.9961h-6.998zm8 0h6.998v6.9961h-6.998zm-24 8h6.998v6.9961h-6.998zm8 0h6.998v6.9961h-6.998zm8 0h6.998v6.9961h-6.998zm8 0h6.998v6.9961h-6.998zm-24 8h6.998v6.9961h-6.998zm8 0h6.998v6.9961h-6.998zm8 0h6.998v6.9961h-6.998zm8 0h6.998v6.9961h-6.998zm-24 8h6.998v6.9961h-6.998zm8 0h6.998v6.9961h-6.998zm8 0h6.998v6.9961h-6.998zm8 0h6.998v6.9961h-6.998z" style="fill:#e8deae"/>
 <g transform="translate(0 3.949e-5)">
  <g transform="translate(0 -1004.4)">
   <path d="m1 1043.4v4c0 2.216 1.784 4 4 4h38c2.216 0 4-1.784 4-4v-4c0 2.216-1.784 4-4 4h-38c-2.216 0-4-1.784-4-4z" style="opacity:.1"/>
  </g>
 </g>
 <path d="m26.07 19.716h2.755c0.644 0 0.965 0 0.965-0.573 0-0.315-0.322-0.315-0.862-0.315h-2.665l0.669-3.263c0.135-0.596 0.586-2.621 0.779-2.965 0.29-0.545 0.83-0.975 1.506-0.975 0.122 0 0.959 0 1.57 0.522-1.409 0.103-1.731 1.107-1.731 1.537 0 0.654 0.573 0.998 1.191 0.998 0.83 0 1.757-0.631 1.757-1.715 0-1.313-1.48-1.967-2.787-1.967-1.094 0-3.115 0.51-4.074 3.337-0.187 0.602-0.29 0.889-1.056 4.49h-2.208c-0.618 0-0.965 0-0.965 0.539 0 0.35 0.29 0.35 0.895 0.35h2.117l-2.414 11.28c-0.573 2.77-1.113 5.379-2.787 5.379-0.129 0-0.92 0-1.538-0.522 1.48-0.08 1.763-1.112 1.763-1.543 0-0.654-0.573-1-1.191-1-0.83 0-1.757 0.631-1.757 1.72 0 1.285 1.409 1.973 2.722 1.973 1.763 0 3.051-1.686 3.623-2.775 1.023-1.801 1.77-5.253 1.802-5.459z" style="opacity:.1"/>
 <path d="m26.07 18.716h2.755c0.644 0 0.965 0 0.965-0.573 0-0.315-0.322-0.315-0.862-0.315h-2.665l0.669-3.263c0.135-0.596 0.586-2.621 0.779-2.965 0.29-0.545 0.83-0.975 1.506-0.975 0.122 0 0.959 0 1.57 0.522-1.409 0.103-1.731 1.107-1.731 1.537 0 0.654 0.573 0.998 1.191 0.998 0.83 0 1.757-0.631 1.757-1.715 0-1.313-1.48-1.967-2.787-1.967-1.094 0-3.115 0.51-4.074 3.337-0.187 0.602-0.29 0.889-1.056 4.49h-2.208c-0.618 0-0.965 0-0.965 0.539 0 0.35 0.29 0.35 0.895 0.35h2.117l-2.414 11.28c-0.573 2.77-1.113 5.379-2.787 5.379-0.129 0-0.92 0-1.538-0.522 1.48-0.08 1.763-1.112 1.763-1.543 0-0.654-0.573-1-1.191-1-0.83 0-1.757 0.631-1.757 1.72 0 1.285 1.409 1.973 2.722 1.973 1.763 0 3.051-1.686 3.623-2.775 1.023-1.801 1.77-5.253 1.802-5.459z" style="fill:#383838"/>
</svg>

<svg width="48" height="48" viewBox="0 0 48 48.000001" xmlns="http://www.w3.org/2000/svg">
  <defs>
    <linearGradient id="a" x1="-47" x2="-1" gradientUnits="userSpaceOnUse">
      <stop offset="0" stop-color="#f9f1c3"/>
      <stop offset="1" stop-color="#fbf5d5"/>
    </linearGradient>
  </defs>
  <path d="M1 43v.25c0 2.216 1.784 4 4 4h38c2.216 0 4-1.784 4-4V43c0 2.216-1.784 4-4 4H5c-2.216 0-4-1.784-4-4zm0 .5v.5c0 2.216 1.784 4 4 4h38c2.216 0 4-1.784 4-4v-.5c0 2.216-1.784 4-4 4H5c-2.216 0-4-1.784-4-4z" opacity=".02"/>
  <path d="M1 43.25v.25c0 2.216 1.784 4 4 4h38c2.216 0 4-1.784 4-4v-.25c0 2.216-1.784 4-4 4H5c-2.216 0-4-1.784-4-4z" opacity=".05"/>
  <path d="M1 43v.25c0 2.216 1.784 4 4 4h38c2.216 0 4-1.784 4-4V43c0 2.216-1.784 4-4 4H5c-2.216 0-4-1.784-4-4z" opacity=".1"/>
  <rect transform="rotate(-90)" x="-47" y="1" width="46" height="46" rx="4" fill="url(#a)"/>
  <path d="M8.002 1v5.5L8 6.502v.5H1v1.002l7-.002v7H1v1h6.998v7H1v1h6.998v7H1v1h6.998v7L1 39v1.002h7V47h1l-.002-5.565.004.004v-1.437h6.996V47h1.004v-6.996h6.996V47h1v-6.998h7V47h1v-6.996l7-.004v.5l.002-.002V47h1v-7h6v-1h-6l-.002-6.996H47V31h-6.002v-6.996H47V23h-6.002v-6.996H47V15h-6l.002-6.996H47v-1h-5.998V1h-1v5.51l-.006-.006v.5L33 7V1h-1.004v6.002H25V1h-1v6h-7V1h-1v6.002H9v-1.44L9.002 1h-1zm1 7.004H16V15H9.002zm8 0H24V15h-6.998zm8 0H32V15h-6.998zm8 0H40V15h-6.998zm-24 8H16V23H9.002zm8 0H24V23h-6.998zm8 0H32V23h-6.998zm8 0H40V23h-6.998zm-24 8H16V31H9.002zm8 0H24V31h-6.998zm8 0H32V31h-6.998zm8 0H40V31h-6.998zm-24 8H16V39H9.002zm8 0H24V39h-6.998zm8 0H32V39h-6.998zm8 0H40V39h-6.998z" fill="#e8deae"/>
  <path d="M1 39v4c0 2.216 1.784 4 4 4h38c2.216 0 4-1.784 4-4v-4c0 2.216-1.784 4-4 4H5c-2.216 0-4-1.784-4-4zM26.07 19.716h2.755c.644 0 .965 0 .965-.573 0-.315-.322-.315-.862-.315h-2.665l.669-3.263c.135-.596.586-2.621.779-2.965.29-.545.83-.975 1.506-.975.122 0 .959 0 1.57.522-1.409.103-1.731 1.107-1.731 1.537 0 .654.573.998 1.191.998.83 0 1.757-.631 1.757-1.715 0-1.313-1.48-1.967-2.787-1.967-1.094 0-3.115.51-4.074 3.337-.187.602-.29.889-1.056 4.49h-2.208c-.618 0-.965 0-.965.539 0 .35.29.35.895.35h2.117l-2.414 11.28c-.573 2.77-1.113 5.379-2.787 5.379-.129 0-.92 0-1.538-.522 1.48-.08 1.763-1.112 1.763-1.543 0-.654-.573-1-1.191-1-.83 0-1.757.631-1.757 1.72 0 1.285 1.409 1.973 2.722 1.973 1.763 0 3.051-1.686 3.623-2.775 1.023-1.801 1.77-5.253 1.802-5.459z" opacity=".1"/>
  <path d="M26.07 18.716h2.755c.644 0 .965 0 .965-.573 0-.315-.322-.315-.862-.315h-2.665l.669-3.263c.135-.596.586-2.621.779-2.965.29-.545.83-.975 1.506-.975.122 0 .959 0 1.57.522-1.409.103-1.731 1.107-1.731 1.537 0 .654.573.998 1.191.998.83 0 1.757-.631 1.757-1.715 0-1.313-1.48-1.967-2.787-1.967-1.094 0-3.115.51-4.074 3.337-.187.602-.29.889-1.056 4.49h-2.208c-.618 0-.965 0-.965.539 0 .35.29.35.895.35h2.117l-2.414 11.28c-.573 2.77-1.113 5.379-2.787 5.379-.129 0-.92 0-1.538-.522 1.48-.08 1.763-1.112 1.763-1.543 0-.654-.573-1-1.191-1-.83 0-1.757.631-1.757 1.72 0 1.285 1.409 1.973 2.722 1.973 1.763 0 3.051-1.686 3.623-2.775 1.023-1.801 1.77-5.253 1.802-5.459z" fill="#383838"/>
</svg>
